X:1
T:Title
%%score { 1 | 2 }
L:1/8
M:3/4
K:G
V:1 treble nm="Grand Piano"
V:2 bass 
V:1
 z2 z[Q:1/4=92] D EF | G3 [FA] Bc | d4 G2 | c3 c B_B |[M:2/4] B4 |[M:1/4] B2 | %6
[M:3/4] [FB][FA] E2 F2 | G>A B2 B2 | Ad d2 ^c2 |[M:5/8] [DFd]- [DFd]3 z |[M:1/8] D | %11
[M:3/4] d>[E^c] [F=c]3 [DF] | [FB]A D2 G2 | [EG]3 [^DF] [EG][Dc] |[M:2/4] [DB]4 |[M:1/4] B2 | %16
[M:3/4] d>[E^c] [F=c]3 [DF] | [FB][FA] G2 [Ge]2 | [Gd][GB] D2 A2 |[M:3/8] G3 |] %20
V:2
 z2 z D, [D,G,^C][D,A,=C] | [G,B,]3 [D,D][K:treble] [G,DG][G,A,G] | [G,B,G]4 [G,B,]2 | %3
 [G,EG]3 [G,EG] [G,DG][G,^CG] |[M:2/4] [G,DG]4 |[M:1/4] [G,DG]2 | %6
[M:3/4][K:bass] [D,D][D,C] [D,F,C]2 [D,A,C]2 | [E,G,B,]>[D,F,D][K:treble] [G,D]2 [G,DG]2 | %8
 [A,DF][A,DF] [A,EG]2 [A,EG]2 |[M:5/8][K:bass] D,- D,3 z |[M:1/8] D, | %11
[M:3/4] [D,B,D]>[D,_B,] [D,A,]3 [D,A,] | [D,D][F,CD] [G,B,]2 [G,B,=F]2 | [C,C]3 [C,C] [C,C][C,G,] | %14
[M:2/4] [G,,G,]4 |[M:1/4] [G,D]2 |[M:3/4] [D,B,D]>[D,_B,] [D,A,]3 [D,C] | %17
 [^D,A,][D,B,] [E,B,]2 [C,C]2 | [D,B,][D,D] [D,B,]2 [D,CD]2 |[M:3/8] [G,B,D]3 |] %20

